!!!!SEGMENT: pl-kk--kk-i-480--002_wiltberger-august--missa-gloria.krn
!!!cenid: 18xx:1436
!!!COM: Wiltberger, August
!!!COM-rismid: pe327522
!!!CDT: 1850/04/17-1928/12/02
!!!CNT: German
!!!OPR: Missa
!!!OTL: Gloria
!!!OMV: 002
!!!PDT:
!!!AGN: Sacred; Mass
!!!SMS-siglum: PL-Kk
!!!SMS-shelfmark: Kk.I.480
!!!SMS-shelfwork: 001-002 M
!!!SMS-variant: Tenor I: PL-Kk Kk.I.480:7-8; Tenor II: PL-Kk Kk.I.480:12-13; Bas I: PL-Kk Kk.I.480:17-18; Bas II: PL-Kk Kk.I.480:22-23
!!!SMS-altvar: Partytura: PL-Kk Kk.I.480:2-3
!!!NIFC-rismid: 1001140257
!!!URL-scan: http://repozytorium.nifc.pl/skany/pl-kk-nut--i-480
!!!ONB-nifc: UWAGA: na podstawie głosów. Proszę uzupełnić pola !!!SMS dot. partytury i głosów. Uwaga: części mszy: 1. Kyrie, 2. Gloria, 3. Sanctus, 4. Benedictus, 5. Agnus
!!!key:
**kern	**text	**dynam	**kern	**text	**dynam	**kern	**text	**dynam	**kern	**text	**dynam
*part4	*part4	*part4	*part3	*part3	*part3	*part2	*part2	*part2	*part1	*part1	*part1
*staff4	*staff4	*	*staff3	*staff3	*	*staff2	*staff2	*	*staff1	*staff1	*
*	*	*	*	*	*	*ITrd7c12	*	*	*ITrd7c12	*	*
*Iempty	*	*	*Iempty	*	*	*Itenor	*	*	*Itenor	*	*
*I"Bas II	*	*	*I"Bas I	*	*	*I"Tenor II	*	*	*I"Tenor I	*	*
*I'B 2	*	*	*I'B 1	*	*	*I'T 2	*	*	*I'T 1	*	*
*clefF4	*	*	*clefF4	*	*	*clefG2	*	*	*clefG2	*	*
*k[b-]	*	*	*k[b-]	*	*	*k[b-]	*	*	*k[b-]	*	*
*F:	*	*	*F:	*	*	*F:	*	*	*F:	*	*
*M4/4	*	*	*M4/4	*	*	*M4/4	*	*	*M4/4	*	*
*met(c)	*	*	*met(c)	*	*	*met(c)	*	*	*met(c)	*	*
=1	=1	=1	=1	=1	=1	=1	=1	=1	=1	=1	=1
!	!	!LO:DY:a:rj	!	!	!LO:DY:a:rj	!	!	!LO:DY:a:rj	!	!	!LO:DY:a:rj
4.F\	Et	mf	4.F\	Et	mf	4.F/	Et	mf	4.A/	Et	mf
8F\	in	.	8F\	in	.	8F/	in	.	8A/	in	.
4D\	ter-	.	4F\	ter-	.	4F/	ter-	.	4B-/	ter-	.
4F\	-ra	.	4F\	-ra	.	4F/	-ra	.	4A/	-ra	.
=2	=2	=2	=2	=2	=2	=2	=2	=2	=2	=2	=2
(>4E\	pax	.	(>4G\	pax	.	(<4G/	pax	.	(>2c\	pax	.
4F\	.	.	2F,\)	.	.	4A/	.	.	.	.	.
4BB-,/)	.	.	.	.	.	4B-,/)	.	.	4d,\)	.	.
!	!	!	!	!	!	!	!	!	!	!	!LO:HP:a
.	.	.	.	.	.	.	.	.	.	.	<
!	!	!	!	!	!LO:HP:a	!	!	!	!	!	!
4G\	ho-	.	4B-\	ho-	<	4B-\	ho-	.	4e\	ho-	.
=3	=3	=3	=3	=3	=3	=3	=3	=3	=3	=3	=3
4.F\	-mi-	.	4B-\	-mi-	[[	4.c\	-mi-	.	4.f\	-mi-	.
.	.	.	4A\	-ni-	.	.	.	.	.	.	.
8F\	-ni-	.	.	.	.	8c\	-ni-	.	8f\	-ni-	[
4E,\	-bus,	.	4G,\	-bus,	.	4c,\	-bus,	.	4c,\	-bus	.
(<4D\	bo-	.	[>4F\	bo-	.	[>4B-\	bo-	.	(>4B-\	bo-	.
=4	=4	=4	=4	=4	=4	=4	=4	=4	=4	=4	=4
4BB-/)	.	.	4F\]	.	.	4B-\]	.	.	4d\)	.	.
4C/	-nae	.	4E\	-nae	.	4G/	-nae	.	4c\	-nae	.
!	!	!	!	!	!LO:HP:a	!	!	!	!	!	!
4D\	vo-	.	4D\	vo-	>	4F/	vo-	.	4A/	vo-	.
4BB-/	-lun-	.	4D\	-lun-	.	4F/	-lun-	.	4B-\	-lun-	.
!LO:LB:g=original	!	!	!LO:LB:g=original	!	!	!LO:LB:g=original	!	!	!LO:LB:g=original	!	!
=5	=5	=5	=5	=5	=5	=5	=5	=5	=5	=5	=5
2C/	-ta-	.	2C/	-ta-	]	(<4F/	-ta-	.	2G/	-ta-	.
.	.	.	.	.	.	4E/)	.	.	.	.	.
4F,\	-tis.	.	4F,\	-tis.	.	2F/	-tis	.	2F/	-tis	.
4F\	Lau-	.	4A\	Lau-	.	.	.	.	.	.	.
=6	=6	=6	=6	=6	=6	=6	=6	=6	=6	=6	=6
!	!	!LO:DY:a:rj	!	!	!LO:DY:a:rj	!LO:TX:a:t=3.	!	!	!LO:TX:a:t=1.	!	!
!	!	!	!	!	!	!LO:TX:a:t=P:problem:jedna pauza wielotaktowa	!	!	!	!	!
4.F\	-da-	mf	4.A\	-da-	mf	1r	.	.	1r	.	.
8G\	-mus	.	8B-\	-mus	.	.	.	.	.	.	.
4A,\	te,	.	4c,\	te,	.	.	.	.	.	.	.
8G\	be-	.	8B-\	be-	.	.	.	.	.	.	.
8F\	-ne-	.	8A\	-ne-	.	.	.	.	.	.	.
=7	=7	=7	=7	=7	=7	=7	=7	=7	=7	=7	=7
4B-\	-di-	.	4d\	-di-	.	1r	.	.	2r	.	.
8A\	-ci-	.	8c\	-ci-	.	.	.	.	.	.	.
8G\	-mus	.	8B-\	-mus	.	.	.	.	.	.	.
4F,\	te	.	4A\	te,	.	.	.	.	4r	.	.
!	!	!LO:DY:a:rj	!	!	!	!	!	!	!	!	!LO:DY:a:rj
(>4A\	a-	p	(>4c\	a-	.	.	.	.	(>4f\	a-	p
=8	=8	=8	=8	=8	=8	=8	=8	=8	=8	=8	=8
4G\)	.	.	4B-\)	.	.	1r	.	.	4e\)	.	.
4F\	-do-	.	4A\	-do-	.	.	.	.	4d\	-do-	.
4E\	-ra-	.	4G\	-ra-	.	.	.	.	4.c\	-ra-	.
4D\	-mus	.	4F\	-mus	.	.	.	.	.	.	.
.	.	.	.	.	.	.	.	.	8Bn\	-mus	.
!LO:LB:g=original	!	!	!LO:LB:g=original	!	!	!	!	!	!	!	!
=9	=9	=9	=9	=9	=9	=9	=9	=9	=9	=9	=9
4C,/	te	.	4E,\	te,	.	4r	.	.	4c,\	te	.
!	!	!	!	!	!	!	!	!LO:HP:a	!	!	!
.	.	.	.	.	.	.	.	<	.	.	.
!	!	!	!	!	!LO:HP:a	!	!	!	!	!	!
4C/	glo-	.	4G\	glo-	<	4c\	glo-	.	4e\	glo-	.
!	!	!	!	!	!	!	!	!	!	!	!LO:HP:a
4.C/	-ri-	.	4.G\	-ri-	.	4.c\	-ri-	.	4.e\	-ri-	<
8C/	-fi-	.	8G\	-fi-	.	8c\	-fi	.	8e\	-fi-	.
!	!	!	!	!	!	!	!	!	!LO:LB:g=original	!	!
=10	=10	=10	=10	=10	=10	=10	=10	=10	=10	=10	=10
(>4E\	-ca-	.	(>4G\	-ca-	.	2.c\	-ca-	.	(>4g\	-ca-	.
8F\L	.	.	8A\L	.	.	.	.	.	4c\	.	.
8E\J	.	.	8G\J	.	.	.	.	.	.	.	.
4D\)	.	.	4F\)	.	.	.	.	.	4f\)	.	.
4GG/	-mus	.	4G\	-mus	.	4Bn\	-mus	.	8e\L	-mus	.
.	.	.	.	.	.	.	.	.	8d\J	.	.
=11	=11	=11	=11	=11	=11	=11	=11	=11	=11	=11	=11
4C,/	te	.	4G\	te;	.	4c\	te;	.	4e\	te;	.
!	!	!LO:DY:a	!LO:TX:a:t=P:problem:oznaczenie dynamiczne na pięciolinii przed nutą	!	!LO:DY:a:rj	!LO:TX:a:t=P:problem:oznaczenie dynamiczne na pięciolinii przed nutą	!	!LO:DY:a:rj	!	!	!
2AA/	gra-	f	2A\	gra-	f	2c\	gra-	f	2e\	gra-	.
8AA/	-ti-	.	8A\	-ti-	.	8c\	-ti-	.	8e\	-ti-	.
8AA/	-as	.	8A\	-as	.	8c\	-as	.	8e\	-as	.
!	!	!	!	!	!	!LO:LB:g=original	!	!	!	!	!
=12||	=12||	=12||	=12||	=12||	=12||	=12||	=12||	=12||	=12||	=12||	=12||
*M3/4	*	*	*M3/4	*	*	*M3/4	*	*	*M3/4	*	*
4.BB-/	a-	.	4.F\	a-	.	4.B-\	a-	.	4.d\	a-	.
8BB-/	-gi-	.	8F\	-gi-	.	8B-\	-gi-	.	8d\	-gi-	.
4F\	-mus	.	4F\	-mus	.	4A/	-mus	.	4d\	-mus	.
!LO:LB:g=original	!	!	!LO:LB:g=original	!	!	!	!	!	!	!	!
=13	=13	=13	=13	=13	=13	=13	=13	=13	=13	=13	=13
!	!	!	!	!	!LO:HP:a	!	!	!	!	!	!
2C/	ti-	.	(<4F\	ti-	<	2G/	ti-	<	2c\	ti-	<
!	!	!	!	!	!LO:HP:a	!	!	!	!	!	!
.	.	.	.	.	[ >	.	.	[>	.	.	[>
.	.	.	4E\)	.	]	.	.	]	.	.	]
4D\	-bi,	.	4F\	-bi,	.	4F/	-bi,	.	4A/	-bi	.
=14	=14	=14	=14	=14	=14	=14	=14	=14	=14	=14	=14
8G\	prop-	.	8G\	prop-	.	8B-\	prop-	.	8B-\	prop-	.
8G\	-ter	.	8G\	-ter	.	8B-\	-ter	.	8B-\	-ter	.
4F\	ma-	.	4F\	ma-	.	4A/	ma-	.	4c\	ma-	.
4BB-/	-gnam	.	4F\	-gnam	.	4B-\	-gnam	.	4d\	-gnam	.
!	!	!	!	!	!	!	!	!	!LO:LB:g=original	!	!
=15	=15	=15	=15	=15	=15	=15	=15	=15	=15	=15	=15
4.E-X\	glo-	.	4.G\	glo-	.	4.B-\	glo-	.	4.e-X\	glo-	.
8E-\	-ri-	.	8G\	-ri-	.	8B-\	-ri-	.	8e-\	-ri-	.
4BB-/	-am	.	4F\	-am	.	4B-\	-am	.	4d\	-am	.
=16	=16	=16	=16	=16	=16	=16	=16	=16	=16	=16	=16
2.F\	tu-	.	(>4.F\	tu-	.	(<4B-\	tu-	.	2.c\	tu-	.
.	.	.	.	.	.	8A/L	.	.	.	.	.
.	.	.	8G\)	.	.	8G/	.	.	.	.	.
.	.	.	4A\	.	.	8F/	.	.	.	.	.
.	.	.	.	.	.	8E-X/J)	.	.	.	.	.
!	!	!	!	!	!	!LO:LB:g=original	!	!	!	!	!
=17	=17	=17	=17	=17	=17	=17	=17	=17	=17	=17	=17
2.BB-/	-am.	.	2.B-\	-am	.	2.D/	-am	.	2.B-\	-am	.
=18	=18	=18	=18	=18	=18	=18	=18	=18	=18	=18	=18
!	!	!LO:DY:a:rj	!	!	!LO:DY:a:rj	!LO:TX:a:t=4.	!	!	!LO:TX:a:t=1.	!	!
!	!	!	!	!	!	!LO:TX:a:t=P:problem:jedna pauza wielotaktowa	!	!	!	!	!
4.BB-/	Do-	mf	4B-\	Do-	f	2.r	.	.	2.r	.	.
.	.	.	4B-\	-mi-	.	.	.	.	.	.	.
8C/	-mi-	.	.	.	.	.	.	.	.	.	.
4D\	-ne	.	4B-\	-ne	.	.	.	.	.	.	.
!LO:LB:g=original	!	!	!LO:LB:g=original	!	!	!	!	!	!	!	!
=19	=19	=19	=19	=19	=19	=19	=19	=19	=19	=19	=19
!	!	!	!	!	!	!	!	!	!LO:TX:a:t=3.	!	!
!	!	!	!	!	!	!	!	!	!LO:TX:a:t=P:problem:jedna pauza wielotaktowa	!	!
2F\	De-	.	2A\	De-	.	2.r	.	.	2.r	.	.
4F\	-us	.	4A\	-us	.	.	.	.	.	.	.
=20	=20	=20	=20	=20	=20	=20	=20	=20	=20	=20	=20
(>8E\L	Rex	.	2c\	Rex	.	2.r	.	.	2.r	.	.
8C\J	.	.	.	.	.	.	.	.	.	.	.
4D\)	.	.	.	.	.	.	.	.	.	.	.
4E\	coe-	.	4B-\	coe-	.	.	.	.	.	.	.
=21	=21	=21	=21	=21	=21	=21	=21	=21	=21	=21	=21
2G\	-les-	.	2B-\	-les-	.	2.r	.	.	2.r	.	.
4F\	-tis,	.	4A\	-tis,	.	.	.	.	.	.	.
=22	=22	=22	=22	=22	=22	=22	=22	=22	=22	=22	=22
!	!	!LO:HP:b:t=cresc	!	!	!LO:HP:a:t=cresc	!	!	!	!	!	!LO:HP:a:t=cresc
(>4F\	De-	<	(>4F\	De-	<	(<4A/	De-	.	2c\	De-	<
!	!	!	!	!	!	!	!	!LO:HP:a	!	!	!
.	.	.	.	.	.	.	.	<	.	.	.
4E\)	.	.	4G\)	.	.	4G/)	.	.	.	.	.
4D\	-us	.	4F\	-us	.	4Bn\	-us	.	4d\	-us	.
=23	=23	=23	=23	=23	=23	=23	=23	=23	=23	=23	=23
4C/	Pa-	.	4G\	Pa-	.	4c\	Pa-	.	4e\	Pa-	.
4F,\	-ter	.	4F,\	-ter	.	4A,/	-ter	.	4c\	-ter	.
4D\	om-	.	4F\	om-	.	8A/L	o-	.	[>4f\	om-	.
.	.	.	.	.	.	8B-X/J	.	.	.	.	.
!	!	!	!	!	!	!	!	!	!LO:LB:g=original	!	!
=24	=24	=24	=24	=24	=24	=24	=24	=24	=24	=24	=24
!	!	!	!	!	!	!	!	!	!LO:TX:a:t=P:problem:niejednoznaczny zapis łuków	!	!
2C/	-ni-	.	2G\	-ni-	.	2c\	-mni-	.	(>(>8f\L]	-ni-	.
.	.	.	.	.	.	.	.	.	8d\J)	.	.
.	.	.	.	.	.	.	.	.	2e\)	-po-	.
4C/	-po-	.	4G\	-po-	.	4c\	-po-	.	.	.	.
!	!	!	!LO:LB:g=original	!	!	!	!	!	!	!	!
=25	=25	=25	=25	=25	=25	=25	=25	=25	=25	=25	=25
2.F\	-tens	.	2.A\	-tens	.	2.c\	-tens.	.	2.f\	-tens	.
!LO:LB:g=original	!	!	!	!	!	!LO:LB:g=original	!	!	!	!	!
=26||	=26||	=26||	=26||	=26||	=26||	=26||	=26||	=26||	=26||	=26||	=26||
*M4/4	*	*	*M4/4	*	*	*M4/4	*	*	*M4/4	*	*
*met(c)	*	*	*met(c)	*	*	*met(c)	*	*	*met(c)	*	*
!LO:TX:a:t=3.	!	!	!LO:TX:a:t=4.	!	!	!	!	!LO:DY:a:rj	!	!	!LO:DY:a:rj
!LO:TX:a:t=P:problem:jedna pauza wielotaktowa	!	!	!LO:TX:a:t=P:problem:jedna pauza wielotaktowa	!	!	!	!	!	!	!	!
1r	.	.	1r	.	.	4A/	Do-	mf	4.f\	Do-	mf
.	.	.	.	.	.	4F/	-mi-	.	.	.	.
.	.	.	.	.	.	.	.	.	8e\	-mi-	.
.	.	.	.	.	.	(>4B-\	-ne	.	(>4d\	-ne	.
.	.	.	.	.	.	4A/)	.	.	4c\)	.	.
=27	=27	=27	=27	=27	=27	=27	=27	=27	=27	=27	=27
1r	.	.	1r	.	.	4G/	Fi-	.	4B-\	Fi-	.
.	.	.	.	.	.	4E/	-li	.	4c\	-li	.
.	.	.	.	.	.	4F/	u-	.	4A/	u-	.
.	.	.	.	.	.	4F/	-ni-	.	4F/	-ni-	.
=28	=28	=28	=28	=28	=28	=28	=28	=28	=28	=28	=28
1r	.	.	1r	.	.	(<4F/	-ge-	.	2.G/	-ge-	.
.	.	.	.	.	.	8E/L	.	.	.	.	.
!	!	!	!	!	!	!	!	!LO:HP:a	!	!	!
.	.	.	.	.	.	8D/J)	.	>	.	.	.
.	.	.	.	.	.	2E/	-ni-	.	.	.	.
.	.	.	.	.	.	.	.	.	4c/	-ni-	.
!	!	!	!	!	!	!	!	!	!LO:LB:g=original	!	!
=29	=29	=29	=29	=29	=29	=29	=29	=29	=29	=29	=29
!	!	!LO:DY:a	!	!	!	!	!	!	!	!	!
2F\	Je-	p	1r	.	.	2F/	-te,	]	2A/	-te	.
2E\	-su	.	.	.	.	2r	.	.	2r	.	.
=30	=30	=30	=30	=30	=30	=30	=30	=30	=30	=30	=30
!	!	!	!	!	!LO:DY:a:rj	!	!	!LO:DY:a:rj	!	!	!LO:DY:a:rj
(>2D\	Chri-	.	2F\	Je-	p	(<4A/	Je-	p	2.f\	Je-	p
.	.	.	.	.	.	4Bn\)	.	.	.	.	.
2C/	.	.	2G\	-su	.	2c\	-su	.	.	.	.
.	.	.	.	.	.	.	.	.	4e\	-su	.
!	!	!	!	!	!	!LO:LB:g=original	!	!	!	!	!
=31	=31	=31	=31	=31	=31	=31	=31	=31	=31	=31	=31
2FF/	.	.	(>2F\	Chri-	.	(<2A/	Chri-	.	(>4d\	Chri-	.
.	.	.	.	.	.	.	.	.	2c\	.	.
2GG/)	.	.	2D\)	.	.	2G/)	.	.	.	.	.
.	.	.	.	.	.	.	.	.	4Bn\)	.	.
=32	=32	=32	=32	=32	=32	=32	=32	=32	=32	=32	=32
4C,/	-ste,	.	4E,\	-ste,	.	4G,/	-ste,	.	4c,\	-ste,	.
!	!	!	!	!	!LO:DY:a	!	!	!	!	!	!LO:DY:a:rj
4.C/	Do-	.	4.E\	Do-	p	4.G/	Do-	.	4.c\	Do-	p
8C/	-mi-	.	8E\	-mi-	.	8G/	-mi-	.	8c\	-mi-	.
4C/	-ne	.	4E\	-ne	.	4G/	-ne	.	4c\	-ne	.
=33	=33	=33	=33	=33	=33	=33	=33	=33	=33	=33	=33
!	!	!	!	!	!	!	!	!LO:DY:a	!	!	!
2BBn/	De-	.	2G\	De-	.	2G/	De-	<	2d\	De-	.
!	!	!LO:HP:a	!	!	!	!	!	!	!	!	!
.	.	<	.	.	.	.	.	.	.	.	.
2BB/	-us,	.	2G\	-us	.	2G/	-us,	[[	2d\	-us,	.
!LO:LB:g=original	!	!	!LO:PB:g=original	!	!	!	!	!	!	!	!
=34	=34	=34	=34	=34	=34	=34	=34	=34	=34	=34	=34
(<4C/	A-	.	2G\	Ag-	.	2.c\	A-	.	(>2e\	A-	.
4BB-X/)	.	[	.	.	.	.	.	.	.	.	.
(<4AA/	-gnus	.	2F\	-nus	.	.	.	.	4f\)	.	.
4FF/)	.	.	.	.	.	4A/	-gnus	.	4c\	-gnus	.
!	!	!	!	!	!	!	!	!	!LO:LB:g=original	!	!
=35	=35	=35	=35	=35	=35	=35	=35	=35	=35	=35	=35
2GG/	De-	.	2D\	De-	.	2G/	De-	.	2B-\	De-	.
2D\	-i,	.	2D\	-i	.	2F/	-i,	.	2A/	-i,	.
=36	=36	=36	=36	=36	=36	=36	=36	=36	=36	=36	=36
4.D\	Fi-	.	4.D\	Fi-	.	4.F/	Fi-	.	4.A/	Fi-	.
8D\	-li-	.	8D\	-li-	.	8F/	-li-	.	8A/	-li-	.
2G\	-us	.	2G\	-us	.	2G/	-us	.	2B-\	-us	.
!	!	!	!	!	!	!LO:LB:g=original	!	!	!	!	!
=37	=37	=37	=37	=37	=37	=37	=37	=37	=37	=37	=37
!	!	!	!	!	!	!LO:TX:a:i:t=riten	!	!	!	!	!
[>2E-\	Pa-	.	(>2E-\	Pa-	.	2.G/	Pa-	.	(>2B-\	Pa-	.
!	!	!	!LO:TX:a:i:t=rit.	!	!	!	!	!	!LO:TX:a:i:t=rit.	!	!
.	.	.	.	.	.	.	.	.	.	.	.
2E-\]	.	.	2G\)	.	.	.	.	.	2c\)	.	.
.	.	.	.	.	.	4A/	.	.	.	.	.
=38	=38	=38	=38	=38	=38	=38	=38	=38	=38	=38	=38
2.BB-,/	-tris.	.	2.F\	-tris.	.	2.B-,\	-tris.	.	2.d,\	-tris	.
4BB-/	Qui	.	4F\	Qui	.	4B-\	Qui	.	4d\	Qui	.
!LO:PB:g=original	!	!	!	!	!	!	!	!	!LO:TX:i:a:t=a tempo	!	!
=39	=39	=39	=39	=39	=39	=39	=39	=39	=39	=39	=39
!LO:TX:a:i:t=a tempo	!	!	!LO:TX:i:a:t=a tempo	!	!	!LO:TX:a:i:t=a tempo	!	!	!	!	!
2BB-/	tol-	.	2F\	tol-	.	2B-\	tol-	.	2d\	tol-	.
4BB-,/	-lis	.	4F\	-lis	.	4B-,\	-lis	.	4d\	-lis	.
4BB-/	pec-	.	4F\	pec-	.	4B-\	pec-	.	4d\	pec-	.
!	!	!	!LO:LB:g=original	!	!	!	!	!	!	!	!
=40	=40	=40	=40	=40	=40	=40	=40	=40	=40	=40	=40
!	!	!LO:HP:a	!	!	!LO:HP:a	!	!	!LO:DY:a	!	!	!
2.E-X\	-ca-	<	2.G\	-ca-	<	2.G/	-ca-	<	(>4d\	-ca-	.
.	.	.	.	.	.	.	.	.	8c\L	.	.
.	.	.	.	.	.	.	.	.	8B-\J	.	.
.	.	.	.	.	.	.	.	.	4c\)	.	.
4D\	-ta	.	4F\	-ta	[[	4Bn\	-ta	.	4d\	-ta	.
!	!	!	!	!	!	!	!	!	!LO:PB:g=original	!	!
=41	=41	=41	=41	=41	=41	=41	=41	=41	=41	=41	=41
!	!	!	!	!	!	!	!	!	!	!	!LO:HP:a
2C/	mun-	.	2G\	mun-	.	2c\	mun-	[	2e-X\	mun-	<
2C/	-di,	[[	2G\	-di,	.	2c\	-di,	.	2e-\	-di	[[
=42	=42	=42	=42	=42	=42	=42	=42	=42	=42	=42	=42
!	!	!LO:DY:a:rj	!	!	!LO:DY:a:rj	!	!	!LO:DY:a	!	!	!LO:DY:a
4.G\	mi-	p	4.G\	mi-	p	4.B-\	mi-	p	4.e-X\	mi-	p
8F\	-se-	.	8F\	-se-	.	8A/	-se-	.	8d\	-se-	.
4E-X\	-re-	.	4E-X\	-re-	.	4G/	-re-	.	4c\	-re-	.
4D\	-re	.	4F\	-re	.	4B-\	-re	.	4B-\	-re	.
!	!	!	!	!	!	!LO:PB:g=original	!	!	!	!	!
=43	=43	=43	=43	=43	=43	=43	=43	=43	=43	=43	=43
2F\	no-	.	2F\	no-	.	(>4B-\	no-	.	2c\	no-	.
.	.	.	.	.	.	4A/)	.	.	.	.	.
4BB-/	-bis;	.	4F\	-bis;	.	4B-,\	-bis,	.	4d\	-bis,	.
!	!	!LO:DY:a:rj	!	!	!LO:DY:a:rj	!	!	!	!	!	!LO:DY:a:rj
4B-\	qui	p	4B-\	qui	p	4d\	qui	p	4f\	qui	p
=44	=44	=44	=44	=44	=44	=44	=44	=44	=44	=44	=44
(>4A\	tol-	.	(>4A\	tol-	.	(>4c\	tol-	.	(>4f\	tol-	.
4G\)	.	.	4G\)	.	.	4B-\)	.	.	4en\)	.	.
4D,\	-lis	.	4F,\	-lis	.	4A,/	-lis	.	4f,\	-lis	.
4AA/	pec-	.	8A\L	pec-	.	4c\	pec-	.	4e\	pec-	.
.	.	.	8G\J	.	.	.	.	.	.	.	.
!LO:LB:g=original	!	!	!LO:LB:g=original	!	!	!	!	!	!	!	!
=45	=45	=45	=45	=45	=45	=45	=45	=45	=45	=45	=45
2BB-/	-ca-	.	2F\	-ca-	.	(>4c\	-ca-	.	2.d\	-ca-	.
.	.	.	.	.	.	8B-\L	.	.	.	.	.
.	.	.	.	.	.	8A\J)	.	.	.	.	.
2C/	-ta	.	2E\	-ta	.	2G/	-ta	.	.	.	.
.	.	.	.	.	.	.	.	.	4c\	-ta	.
=46	=46	=46	=46	=46	=46	=46	=46	=46	=46	=46	=46
2GG/	mun-	.	2D\	mun-	.	2G/	mun-	.	2B-\	mun-	.
2D\	-di,	.	2D\	-di,	.	2F/	-di,	.	2A/	-di	.
!	!	!	!	!	!	!	!	!	!LO:LB:g=original	!	!
=47	=47	=47	=47	=47	=47	=47	=47	=47	=47	=47	=47
!	!	!LO:HP:a:t=cresc	!	!	!	!	!	!	!	!	!
4.D\	sus-	<	4.F\	sus-	.	4.d\	sus-	.	4.d\	sus-	.
!	!	!	!	!	!	!	!	!LO:HP:a	!	!	!
.	.	.	.	.	.	.	.	<	.	.	.
8E\	-ci-	.	8G\	-ci-	<	8d\	-ci-	.	8d\	-ci-	.
2F\	-pe	.	2A\	-pe	.	2d\	-pe	.	2d\	-pe	.
!	!	!	!	!	!	!LO:LB:g=original	!	!	!	!	!
=48	=48	=48	=48	=48	=48	=48	=48	=48	=48	=48	=48
4.G\	de-	.	4.G\	de-	.	4.B-\	de-	.	4.d\	de-	.
8G\	-pre-	.	8G\	-pre-	.	8B-\	-pre-	.	8d\	-pre-	.
4A\	-ca-	.	4A\	-ca-	.	4A/	-ca-	.	4c#X\	-ca-	.
4A\	-ti-	.	4A\	-ti-	.	4c#X\	-ti-	.	4e\	-ti-	.
=49	=49	=49	=49	=49	=49	=49	=49	=49	=49	=49	=49
4D\	-o-	.	4A\	-o-	.	4d\	-o-	.	4f\	-o-	.
4D\	-nem	.	4A\	-nem	.	4d\	-nem	.	4f\	-nem	.
!LO:TX:a:t=P:problem:oznaczenie dynamiczne na pięciolinii przed nutą	!	!LO:DY:a:rj	!LO:SIC:l:v:s=no-	!	!LO:DY:a:rj	!	!	!LO:DY:a:rj	!	!	!LO:DY:a:rj
2C/	no-	f	2c\	nos-	f	2e\	no-	f	2g\	no-	f
!	!	!	!LO:LB:g=original	!	!	!	!	!	!	!	!
=50	=50	=50	=50	=50	=50	=50	=50	=50	=50	=50	=50
4F,\	-stram,	.	4c,\	-stram,	.	4f\	-stram,	.	4a,\	-stram,	.
4F\	qui	.	4A\	qui	.	4c\	qui	.	4f\	qui	.
!LO:LB:g=original	!	!	!	!	!	!	!	!	!	!	!
4C/	se-	.	4G\	se-	.	4c\	se-	.	4e\	se-	.
8D\	-des	.	8F\	-des	.	8A/	-des	.	8d\	-des	.
8D\	ad	.	8F\	ad	.	8A/	ad	.	8d\	ad	.
!	!	!	!	!	!	!	!	!	!LO:LB:g=original	!	!
=51	=51	=51	=51	=51	=51	=51	=51	=51	=51	=51	=51
4E\	dex-	.	4G\	dex-	.	4G/	dex-	.	4c\	dex-	.
8F\	-te-	.	8F\	-te-	.	8F/	-te-	.	8A/	-te-	.
8D\	-ram	.	8F\	-ram	.	8F/	-ram	.	8B-\	-ram	.
!	!	!	!	!	!	!	!	!	!LO:TX:a:t=P:problem:oznaczenie dynamiczne na pięciolinii pod pod nutą	!	!LO:HP:b
2C/	Pa-	.	2E\	Pa-	.	2G/	Pa-	.	2c\	Pa-	>
!	!	!	!	!	!	!LO:LB:g=original	!	!	!	!	!
=52	=52	=52	=52	=52	=52	=52	=52	=52	=52	=52	=52
4FF,/	-tris,	.	4F,\	-tris	.	4F/	-tris,	.	4A/	-tris	]
!	!	!LO:DY:a	!	!	!LO:DY:a:rj	!	!	!	!	!	!
(>4F\	mi-	p	(>4F\	mi-	p	4r	.	.	4r	.	.
4E\)	.	.	4E\)	.	.	2r	.	.	2r	.	.
4G\	-se-	.	4G\	-se-	.	.	.	.	.	.	.
=53	=53	=53	=53	=53	=53	=53	=53	=53	=53	=53	=53
(>2F\	-re-	.	(>2F\	-re-	.	4r	.	.	4r	.	.
!	!	!	!	!	!	!	!	!LO:DY:a	!	!	!LO:DY:a:rj
.	.	.	.	.	.	(>4d\	mi-	p	(>4d\	mi-	p
4E\	.	.	4E\	.	.	4c\)	.	.	4c\)	.	.
4D\	.	.	4D\	.	.	4d\	-se-	.	4d\	-se-	.
!	!	!	!LO:LB:g=original	!	!	!	!	!	!	!	!
=54	=54	=54	=54	=54	=54	=54	=54	=54	=54	=54	=54
!	!	!	!	!	!	!LO:TX:a:t=P:problem:kasownik dopisany ołówkiem	!	!	!	!	!
4G\)	.	.	4G\)	.	.	4Bn\	-re-	.	4Bn\	-re-	.
4E,\	-re	.	4E,\	-re	.	4G/	-re	.	4c\	-re	.
2D\	no-	.	2F\	no-	.	2F/	no-	.	(>4c\	no-	.
.	.	.	.	.	.	.	.	.	4B\)	.	.
!LO:LB:g=original	!	!	!	!	!	!	!	!	!LO:LB:g=original	!	!
=55	=55	=55	=55	=55	=55	=55	=55	=55	=55	=55	=55
1C	-bis.	.	1G	-bis.	.	1E	-bis	.	1c	-bis	.
=56	=56	=56	=56	=56	=56	=56	=56	=56	=56	=56	=56
!	!	!LO:DY:a:rj	!	!	!LO:DY:a:rj	!LO:TX:a:t=2.	!	!	!LO:TX:a:t=2.	!	!
!	!	!	!	!	!	!LO:TX:a:t=P:problem:jedna pauza wielotaktowa	!	!	!LO:TX:a:t=P:problem:jedna pauza wielotaktowa	!	!
4.C/	Quo-	mf	4.C/	Quo-	mf	1r	.	.	1r	.	.
8C/	-ni-	.	8C/	-ni-	.	.	.	.	.	.	.
4D\	-am	.	4D\	-am	.	.	.	.	.	.	.
4C/	tu	.	4C/	tu	.	.	.	.	.	.	.
=57	=57	=57	=57	=57	=57	=57	=57	=57	=57	=57	=57
4D\	so-	.	4D\	so-	.	1r	.	.	1r	.	.
4E\	-lus	.	4E\	-lus	.	.	.	.	.	.	.
2F\	san-	.	2F\	san-	.	.	.	.	.	.	.
=58	=58	=58	=58	=58	=58	=58	=58	=58	=58	=58	=58
4C,/	-ctus	.	4C,/	-ctus,	.	4r	.	.	4r	.	.
4F\	tu	.	4F\	tu	.	4F/	tu	.	4A/	tu	.
4D\	so-	.	4F\	so-	.	4F/	so-	.	4B-/	so-	.
4F\	-lus	.	4F\	-lus	.	4F/	-lus	.	4A/	-lus	.
!	!	!	!LO:LB:g=original	!	!	!LO:LB:g=original	!	!	!	!	!
=59	=59	=59	=59	=59	=59	=59	=59	=59	=59	=59	=59
4.C/	Do-	.	4.E\	Do-	.	4.G/	Do-	.	4.c\	Do-	.
8C/	-mi-	.	8E\	-mi-	.	8G/	-mi-	.	8c\	-mi-	.
4C,/	-nus,	.	4E,\	-nus	.	4G,/	-nus	.	4c\	-nus,	.
!	!	!	!	!	!LO:HP:a	!	!	!	!	!	!
4F\	tu	.	4F\	tu	<	4A/	tu	.	4c\	tu	.
!LO:LB:g=original	!	!	!	!	!	!	!	!	!	!	!
=60	=60	=60	=60	=60	=60	=60	=60	=60	=60	=60	=60
4F\	so-	.	4A\	so-	[[	4c\	so-	.	4f\	so-	.
8C/	-lus	.	8G\	-lus	.	8c\	-lus	.	8e\	-lus	.
8C/	al-	.	8G\	al-	.	8c\	al-	.	8e\	al-	.
!	!	!	!	!	!	!	!	!	!LO:LB:g=original	!	!
4D\	-tis-	.	4F\	-tis-	.	4A/	-tis-	.	4.d\	-tis-	.
4D\	-si-	.	4F\	-si-	.	4A/	-si-	.	.	.	.
.	.	.	.	.	.	.	.	.	8d\	-si-	.
=61	=61	=61	=61	=61	=61	=61	=61	=61	=61	=61	=61
4AA,/	-mus,	.	4E,\	-mus,	.	4A,/	-mus	.	4c#X,\	-mus	.
!	!	!	!	!	!	!	!	!LO:HP:a	!	!	!LO:HP:a
2D\	Je-	.	2F\	Je-	.	2A/	Je-	<	2d\	Je-	<
4BB-/	-su	.	4F\	-su	.	4B-\	-su	.	4d\	-su	[[
=62	=62	=62	=62	=62	=62	=62	=62	=62	=62	=62	=62
!	!	!	!	!	!	!	!	!	!LO:TX:b:t=P:problem:oznaczenie dynamiczne na pięciolinii pod pod nutą	!	!LO:HP:b
(<4AA/	Chri-	.	(>2F\	Chri-	.	4c\	Chri-	.	(>2f\	Chri-	>
4D\	.	.	.	.	.	2B-\	.	[	.	.	.
!	!	!	!	!	!	!	!	!LO:HP:a	!	!	!
2C/)	.	.	4G\	.	.	.	.	>	2e-X\)	.	]]
.	.	.	8F\L	.	.	4A/	.	.	.	.	.
.	.	.	8E-X\J)	.	.	.	.	.	.	.	.
=63	=63	=63	=63	=63	=63	=63	=63	=63	=63	=63	=63
4BB-,/	-ste.	.	4F,\	-ste.	.	4B-\	-ste	.	4d\	-ste	.
!	!	!LO:DY:a	!LO:TX:a:t=P:problem:oznaczenie dynamiczne na pięciolinii przed nutą	!	!LO:DY:a:rj	!	!	!	!	!	!
4BB-/	Cum	f	4BB-/	Cum	f	4r	.	.	4r	.	.
!	!	!	!LO:LB:g=original	!	!	!	!	!	!	!	!
4B-\	san-	.	4B-\	san-	.	2r	.	]	2r	.	.
4A\	-cto	.	4A\	-cto	.	.	.	.	.	.	.
!LO:LB:g=original	!	!	!	!	!	!LO:LB:g=original	!	!	!	!	!
=64	=64	=64	=64	=64	=64	=64	=64	=64	=64	=64	=64
4.G\	Spi-	.	4.G\	Spi-	.	2r	.	.	2r	.	.
8G\	-ri-	.	8G\	-ri-	.	.	.	.	.	.	.
4G,\	-tu,	.	4G,\	-tu	.	4r	.	.	4r	.	.
4E\	in	.	4G\	in	.	4G/	in	.	4c\	in	.
!	!	!	!	!	!	!	!	!	!LO:LB:g=original	!	!
=65	=65	=65	=65	=65	=65	=65	=65	=65	=65	=65	=65
4F\	glo-	.	4F\	glo-	.	4A/	glo-	.	4c\	glo-	.
8E\	-ri-	.	8E\	-ri-	.	8G/	-ri-	.	8c\	-ri-	.
8E\	-a	.	8E\	-a	.	8G/	-a	.	8c\	-a	.
!	!	!	!	!	!LO:HP:a	!	!	!	!	!	!
4D\	De-	.	4D\	De-	<	4F/	De-	.	4A/	De-	.
4D\	-i	.	4F\	-i	.	4F/	-i	.	4B-,\	-i	.
=66	=66	=66	=66	=66	=66	=66	=66	=66	=66	=66	=66
4C/	Pa-	.	(>(>4E\	Pa-	.	(<8G/L	Pa-	.	4c\	Pa-	.
.	.	.	.	.	.	8A/	.	.	.	.	.
4D\	.	.	4F\)	.	.	8B-/	.	.	[>4f\	.	.
.	.	.	.	.	.	8A/J	.	.	.	.	.
2C/	.	.	2G\)	.	.	2c\)	.	.	(>4f\]	.	.
.	.	.	.	.	.	.	.	.	4e\)	.	.
=67	=67	=67	=67	=67	=67	=67	=67	=67	=67	=67	=67
2F,\	-tris	.	2A\	-tris	.	2c\	-tris	.	2f\	-tris	.
4.F\	A-	.	4.A\	A-	.	2r	.	.	2r	.	.
8G\	.	.	8B-\	.	.	.	.	.	.	.	.
!	!	!	!LO:LB:g=original	!	!	!	!	!	!	!	!
=68	=68	=68	=68	=68	=68	=68	=68	=68	=68	=68	=68
8A\L	.	.	8c\L	.	.	2r	.	.	4r	.	.
8G\	.	.	8B-\	.	.	.	.	.	.	.	.
!	!	!	!	!	!	!	!	!	!	!	!LO:HP:a
8F\	.	.	8A\	.	.	.	.	.	4c\	A-	<
8E\J	.	.	8G\J	.	.	.	.	.	.	.	.
!LO:LB:g=original	!	!	!	!	!	!	!	!	!	!	!
4.D\	.	.	2F\	.	.	4F/	A-	.	8c\L	.	.
.	.	.	.	.	.	.	.	.	8A\	.	.
.	.	.	.	.	.	8G/L	.	.	8B-\	.	.
8C/	.	.	.	.	.	8A/J	.	.	8c\J	.	.
=69	=69	=69	=69	=69	=69	=69	=69	=69	=69	=69	=69
!	!	!	!LO:TX:a:i:t=riten.	!	!	!	!	!	!	!	!
2BB-/	.	.	4F\	.	.	2B-\	.	.	2d\	.	.
.	.	.	4G\	.	.	.	.	.	.	.	.
2FF/	-men.	.	2A\	-men.	.	2c\	-men.	.	2f\	-men.	[
==	==	==	==	==	==	==	==	==	==	==	==
*-	*-	*-	*-	*-	*-	*-	*-	*-	*-	*-	*-
!!!system-decoration: [s1,s2,s3,s4]
!!!RDF**kern: > = above
!!!RDF**kern: < = below
!!!EED: Mateusz Mrugas
!!!EST: 2021-01-29
!!!AIN: 2 empty 2 tenor
!!!ENC: Tomasz Grochalski
!!!END: 2021-01-22
